!!!!SEGMENT: pl-cz--ii-87--001-006_zientarski-romuald-teodor--msza-swieta-et-resurrexit.krn
!!!cenid: 18xx:1167
!!!COM: Zientarski, Romuald Teodor
!!!COM-rismID:
!!!CDT: ~1830-1874
!!!CNT: Polish
!!!OPR: Msza Święta
!!!OTL: Et resurrexit
!!!OMV: 006
!!!PDT: 1888
!!!AGN: Sacred; Mass
!!!SMS-siglum: PL-CZ
!!!SMS-shelfmark: II-87
!!!SMS-shelfwork: 001-006 M
!!!SMS-variant:
!!!SMS-altvar:
!!!NIFC-rismSourceID: 300033224
!!!NIFC-islandoraID: pl-cz:33881
!!!URL-pdf-islandora: https://repozytorium.nifc.pl/islandora/object/pl-cz%3A33881/datastream/PDF/view
!!!URL-scan:
!!!ONB-nifc: UWAGA: części Mszy: Kyrie, Gloria, Graduale, Credo, Et incarnatus, Et resurrexit, Offertorium, Sanctus, Benedictus, Agnus Dei, Benedictio
!!!OMD: Allegro.
!!!AIN: 1 organ 1 vox
!!!key: E-
**kern	**kern	**dynam	**kern	**text	**dynam
*part3	*part2	*part2	*part1	*part1	*part1
*staff3	*staff2	*	*staff1	*staff1	*
*I"[Organo]	*	*	*I"[Voice]	*	*
*Iorgan	*	*	*Ivox	*	*
*ICklav	*	*	*ICvox	*	*
*IGacmp	*	*	*IGsolo	*	*
*clefF4	*clefG2	*	*clefG2	*	*
*k[b-e-a-]	*k[b-e-a-]	*	*k[b-e-a-]	*	*
*E-:	*E-:	*	*E-:	*	*
*M4/4	*M4/4	*	*M4/4	*	*
*met(c)	*met(c)	*	*met(c)	*	*
=1	=1	=1	=1	=1	=1
*	*^	*	*	*	*
!	!	!	!LO:DY:rj	!LO:TX:a:t=Tutti.	!	!LO:DY:b:rj:t=f.
4.E- 4.EE-/	4.b- 4.g 4.e- 4.B-/	2ryy	f	4.b-\	I	f
8F 8FF/	8dd 8a- 8d/	.	.	8dd\	zmar-	.
!	!LO:S:s=2:note:problem=note-level slur	!	!	!	!	!
4G 4GG/	(>4ee- (>4b-/	2e-\	.	4ee-\	-twych-	.
4A- 4AA-/	4cc) 4a-/)	.	.	4cc\	-wstał	.
*	*v	*v	*	*	*	*
=2	=2	=2	=2	=2	=2
!	!LO:S:s=2:note:problem=note-level slur	!	!	!	!
(<8GL 8GG/	8b-L (<8e- (<8B-/	.	8b-/	u-	.
8FJ 8FF/)	8a-J 8d/))	.	8a-/	-ro-	.
2.E- 2.EE-/	(>2g 2e- (<2B-/	.	2g/	-czyś-	.
.	4e-) 4G/)	.	4e-/	-cie	.
=3	=3	=3	=3	=3	=3
*^	*^	*	*	*	*
2BB-/	2ryy	(<8f 8d/L	2ryy	.	(<8f/L	w_nie-	.
.	.	8g 8e-/	.	.	8g/J)	.	.
.	.	8a- 8f/	.	.	(<8a-/L	-bio-	.
.	.	8b- 8g/J)	.	.	8b-/J)	.	.
(<8B-/L	4.BB-\	8cc/L	8a-\	.	(>8cc\L	-sa	.
!	!	!	!LO:N:vis=4	!	!	!	!
8A-/	.	8dd/	4.b-\	.	8dd\J)	.	.
8G/)	.	8ee-/	.	.	(>8ee-\L	u-	.
8D/J	8D\	8ff/J	.	.	8ff\J)	.	.
*v	*v	*	*	*	*	*	*
=4	=4	=4	=4	=4	=4	=4
8E-\L	2gg/	(>4b-\	.	2gg\	-la-	.
8F\	.	.	.	.	.	.
8G\	.	4ee-\)	.	.	.	.
8An\J	.	.	.	.	.	.
8B-\	4ff/	4dd 4b- 4f\	.	4ff\	-ta	.
8A-XL 8AA-^\	.	.	.	.	.	.
8G 8GG^\	4r	4ryy	.	4r	.	.
8FJ 8FF^\	.	.	.	.	.	.
=5	=5	=5	=5	=5	=5	=5
2.E- 2.EE-/	(>8b-L 8g\	2.ryy	.	8b-\	I	.
.	8ccJ 8a-\)	.	.	8cc\	za-	.
.	2dd-X 2b-\	.	.	2dd-X\	-pew-	.
4G 4GG/	(<8ee-/L	4b- 4e-\	.	(>8ee-\L	-nił	.
.	8dd-/J)	.	.	8dd-\J)	.	.
=6	=6	=6	=6	=6	=6	=6
[>2A- [<2AA-\	[[>4.cc/	2a- [<2e-\	.	4.cc\	swo-	.
.	8bn\	.	.	8bn\	-je	.
8A-] 8AA-\]	8cc/]]	8a- 8e-\]	.	4cc\	przyj-	.
8r	8re	8ryy	.	.	.	.
4An 4AAn^\	4cc^/	4f#X\	.	4cc\	-scie	.
=7	=7	=7	=7	=7	=7	=7
!	!	!LO:N:vis=2	!	!	!	!
1B- 1FF	(>4.b- 4.g/	2.e-\	.	4.b-\	Czy-	.
.	8cc 8a-/	.	.	8cc\	-nic	.
.	4b- 4g/	.	.	4b-\	są-	.
.	4g/)	(>8e-\L	.	8g/	-dy	.
.	.	8c#X\J)	.	8g/	ze	.
!!LO:PB:g=original
=8	=8	=8	=8	=8	=8	=8
*^	*	*	*	*	*	*
[>2B-/	(<2BB-\	4.f/	2d\	.	4.f/	Swia-	.
.	.	8a-/	.	.	8a-/	.	.
8B-/]	8E-\)	8g/	8e-\	.	8g/	-ta	.
8ryy	8ryy	8r	8r	.	8r	.	.
4G 4GG/	4ryy	4b- 4g 4e- 4B-/	4ryy	.	4b-\	ze	.
*v	*v	*	*	*	*	*	*
*	*v	*v	*	*	*	*
=9	=9	=9	=9	=9	=9
*	*	*^	*	*	*
!	!LO:S:s=2:note:problem=note-level slur	!	!	!	!	!LO:HP:a
(>1F (<1FF	(>1dd (>1a- (<1d	.	.	1dd	Swia-	<
!	!	!	!LO:DY:b=2	!	!	!LO:HP:a
.	.	f	f	.	.	[ >]
*	*	*v	*v	*	*	*
=10	=10	=10	=10	=10	=10
*	*^	*	*	*	*
2E-) 2EE-/)	2ee-/)	2g 2e-\))	.	2ee-\	-ta.	.
2r	2r	2r	.	2r	.	.
*	*v	*v	*	*	*	*
==	==	==	==	==	==
*-	*-	*-	*-	*-	*-
!!!system-decoration: <s1>(s2,s3)
!!!RDF**kern: > = above
!!!RDF**kern: < = below
!!!ENC: Tomasz Grochalski
!!!END: 2020-11-07
!!!ENC: Andrzej Kubiczek
!!!END: 2021-11-14
